app/assets/images/icon-mb-faded.svg

<svg width="48" height="48" viewBox="0 0 48 48" fill="none" xmlns="http://www.w3.org/2000/svg">
<g opacity="0.2">
<path fill-rule="evenodd" clip-rule="evenodd" d="M23.843 38H36.404C39.2722 38 39.3008 34.9515 39.0087 33.4464C38.8491 32.4349 37.1301 32.4434 36.9409 33.4464V34.6208C36.9409 35.1572 36.5016 35.5965 35.965 35.5965H23.843H22.8735H11.8825C11.3459 35.5965 10.9069 35.1572 10.9069 34.6208V33.4464C10.7176 32.4434 8.99865 32.4349 8.83903 33.4464C8.54718 34.9515 8.57532 38 11.4438 38H22.8735H23.843ZM14.9624 8.80097H33.3587H34.3307C35.6915 8.80097 36.8047 9.97908 36.8047 11.4192V12.6705C36.8047 14.4395 34.4081 14.4328 34.4081 12.6824V11.9989C34.4081 11.5641 34.0525 11.2085 33.6175 11.2085H14.2096C13.7748 11.2085 13.4192 11.5641 13.4192 11.9989V12.6685C13.4192 14.4278 11.1352 14.4154 11.1352 12.7066V11.4192C11.1352 9.97908 12.2486 8.80097 13.6092 8.80097H14.9624V8.80097Z" fill="#00093C"/>
<path fill-rule="evenodd" clip-rule="evenodd" d="M36.3158 23.1843C37.6573 23.8153 38.5834 25.1179 38.5834 26.6135C38.5834 28.7222 36.7424 30.4474 34.4918 30.4474H28.1843C27.5944 30.4474 27.1116 29.9952 27.1116 29.4424V17.4419C27.1116 16.8632 27.5857 16.3893 28.1654 16.3893H33.419C35.6305 16.3893 37.4399 18.1969 37.4399 20.406C37.4399 21.4815 37.0108 22.4614 36.3158 23.1843ZM31.6081 22.2069H33.6107V22.1847C34.5226 22.0448 35.2269 21.2519 35.2269 20.3024C35.2269 19.255 34.3697 18.3979 33.3224 18.3979H29.2885V28.3562H34.4039C35.4856 28.3562 36.3706 27.4712 36.3706 26.3894C36.3706 25.3077 35.4856 24.4227 34.4039 24.4227H33.6107V24.4179H31.6081C31 24.4179 30.5025 23.9206 30.5025 23.3125C30.5025 22.7044 31 22.2069 31.6081 22.2069" fill="#00093C"/>
<path d="M26.1095 29.2488C26.1835 29.9439 25.6797 30.5674 24.9847 30.6411C24.2897 30.7151 23.6661 30.2115 23.5924 29.5163L22.5552 19.9729L18.8817 29.3044L18.878 29.3131L18.8777 29.3141V29.3143L18.8675 29.339L18.8593 29.3584L18.8573 29.3631L18.8486 29.3826L18.8431 29.3943L18.8344 29.4124L18.8302 29.4209L18.8204 29.4401L18.817 29.4468C18.7492 29.5746 18.6621 29.6869 18.5602 29.7812L18.5565 29.7845L18.5376 29.8017C18.4713 29.8604 18.3981 29.9122 18.3187 29.9568L18.3132 29.9598L18.2893 29.9727L18.2883 29.9732L18.2661 29.9847L18.2559 29.9899L18.2417 29.9966L18.2265 30.0036L18.2133 30.0098L18.1976 30.0166L18.184 30.0223L18.171 30.0278L18.1593 30.0323L18.1526 30.035L18.1419 30.039L18.1252 30.0452L18.1155 30.0484C17.993 30.0913 17.8682 30.1142 17.7444 30.1187L17.7295 30.1192L17.7116 30.1194H17.6986H17.6854L17.668 30.1192L17.652 30.1187C17.5138 30.1137 17.3739 30.0855 17.2377 30.0323L17.2207 30.0255L17.2165 30.0235L17.1996 30.0168L17.1831 30.0096L17.1699 30.0034L17.1558 29.9969L17.1406 29.9897L17.1318 29.9852L17.1087 29.9735L17.1064 29.972L17.0868 29.9613L17.0756 29.9553C17.0061 29.9162 16.9416 29.8711 16.8821 29.8211L16.8773 29.8169C16.8632 29.8047 16.8492 29.7927 16.8355 29.78L16.8348 29.779C16.8241 29.769 16.8133 29.7588 16.8031 29.7486C16.7929 29.7382 16.7825 29.7277 16.7725 29.717L16.7718 29.716C16.7591 29.7023 16.7469 29.6886 16.7347 29.6742L16.7304 29.6694C16.6804 29.6099 16.6355 29.5454 16.5965 29.4759L16.5902 29.465L16.5793 29.4451L16.5783 29.4426L16.5663 29.4199L16.5621 29.411L16.5549 29.396L16.5481 29.3816L16.5422 29.3684L16.5349 29.3519L16.5277 29.3352L16.5262 29.331L16.5193 29.3141L12.8417 19.9729L11.8046 29.5163C11.7306 30.2115 11.1073 30.7151 10.4123 30.6411C9.71704 30.5674 9.21352 29.9439 9.28748 29.2488L10.5102 17.9974L10.5107 17.9944L10.5112 17.9897L10.5107 17.9894C10.5254 17.8584 10.553 17.728 10.5928 17.6C10.6314 17.4757 10.683 17.3532 10.7467 17.2336C11.059 16.6472 11.6335 16.2358 12.319 16.141L12.3215 16.1405C12.3444 16.1375 12.3676 16.135 12.3905 16.133C12.4978 16.1218 12.6047 16.1185 12.7098 16.1235L12.7147 16.1238V16.1235C12.8514 16.13 12.9794 16.1472 13.0975 16.1746C13.7514 16.3272 14.307 16.7822 14.5684 17.4463L17.6986 25.3968L20.8285 17.4463C21.09 16.7822 21.6456 16.3272 22.2995 16.1746C22.4173 16.1472 22.5453 16.13 22.6822 16.1235V16.1238L22.6872 16.1235C22.7926 16.1185 22.8996 16.1218 23.0072 16.133C23.0299 16.135 23.0525 16.1375 23.0754 16.1405L23.0779 16.141C23.7635 16.2358 24.3382 16.6472 24.6505 17.2336C24.714 17.3532 24.7658 17.4757 24.8041 17.6C24.844 17.728 24.8716 17.8582 24.8863 17.9894L24.8858 17.9897L24.8863 17.9944L24.8868 17.9974L26.1095 29.2488Z" fill="#00093C"/>
</g>
</svg>

<svg width="48" height="48" fill="none" xmlns="http://www.w3.org/2000/svg"><g opacity=".2" fill="#00093C"><path fill-rule="evenodd" clip-rule="evenodd" d="M23.843 38h12.561c2.868 0 2.897-3.048 2.605-4.554-.16-1.011-1.879-1.003-2.068 0v1.175c0 .536-.44.975-.976.975H11.883a.979.979 0 01-.976-.975v-1.175c-.19-1.003-1.908-1.011-2.068 0C8.547 34.952 8.575 38 11.444 38h12.399zm-8.88-29.199H34.33c1.36 0 2.474 1.178 2.474 2.618v1.252c0 1.769-2.397 1.762-2.397.011V12a.793.793 0 00-.79-.79H14.21a.793.793 0 00-.79.79v.67c0 1.759-2.285 1.746-2.285.038v-1.288c0-1.44 1.114-2.618 2.474-2.618h1.353zM36.316 23.184c1.341.631 2.267 1.934 2.267 3.43 0 2.108-1.84 3.833-4.091 3.833h-6.308c-.59 0-1.072-.452-1.072-1.005v-12c0-.579.474-1.053 1.053-1.053h5.254a4.03 4.03 0 014.02 4.017 4 4 0 01-1.123 2.778zm-4.708-.977h2.003v-.022a1.911 1.911 0 001.616-1.883 1.91 1.91 0 00-1.905-1.904h-4.034v9.958h5.116a1.972 1.972 0 001.967-1.967 1.972 1.972 0 00-1.967-1.966h-.793v-.005h-2.003a1.109 1.109 0 01-1.105-1.105c0-.609.497-1.106 1.105-1.106"/><path d="M26.11 29.249a1.265 1.265 0 11-2.518.267l-1.037-9.543-3.673 9.331-.004.01-.01.025-.009.02-.002.004-.008.02-.006.011-.009.018-.004.009-.01.02-.003.006c-.068.128-.155.24-.257.334l-.003.004-.02.017c-.066.058-.139.11-.218.155l-.006.003-.024.013-.023.012-.01.005-.014.007-.015.007-.014.006-.015.007-.014.005-.013.006-.012.004-.006.003-.011.004-.017.006-.01.003a1.26 1.26 0 01-.37.07l-.015.001h-.078a1.263 1.263 0 01-.414-.087l-.017-.006-.005-.003-.016-.006-.017-.007-.013-.007-.014-.006-.015-.007-.01-.005-.022-.011-.003-.002-.02-.01-.01-.007a1.264 1.264 0 01-.194-.134l-.005-.004-.041-.037-.001-.001-.032-.03-.03-.032-.001-.001a1.242 1.242 0 01-.037-.042l-.005-.005a1.255 1.255 0 01-.134-.193l-.006-.011-.01-.02-.002-.002-.012-.023-.004-.009-.007-.015-.007-.014-.006-.014-.007-.016-.007-.017-.002-.004-.007-.017-3.677-9.341-1.037 9.543a1.266 1.266 0 11-2.518-.267l1.223-11.252v-.003l.001-.004a2.101 2.101 0 01.236-.756 2.097 2.097 0 011.572-1.093h.002l.07-.008c.107-.011.214-.014.319-.01h.005a2.078 2.078 0 011.854 1.323l3.13 7.95 3.13-7.95a2.079 2.079 0 011.853-1.323h.005a2.121 2.121 0 01.388.017l.003.001a2.097 2.097 0 011.808 1.848v.008L26.11 29.25z"/></g></svg>
